svgs/sharp-light/inbox-in.svg

<svg xmlns="http://www.w3.org/2000/svg" viewBox="0 0 512 512"><!--! Font Awesome Pro 6.6.0 by @fontawesome - https://fontawesome.com License - https://fontawesome.com/license (Commercial License) Copyright 2024 Fonticons, Inc. --><path d="M272 16l0 249.4 84.7-84.7L368 169.4 390.6 192l-11.3 11.3-112 112L256 326.6l-11.3-11.3-112-112L121.4 192 144 169.4l11.3 11.3L240 265.4 240 16l0-16 32 0 0 16zM32 320l112 0 32 64 160 0 32-64 112 0 32 0 0 32 0 128 0 32-32 0L32 512 0 512l0-32L0 352l0-32 32 0zm332.6 78.3L355.8 416 336 416l-160 0-19.8 0-8.8-17.7L124.2 352 32 352l0 128 448 0 0-128-92.2 0-23.2 46.3z"/></svg>

<svg xmlns="http://www.w3.org/2000/svg" viewBox="0 0 512 512"><!--! Font Awesome Pro 6.4.2 by @fontawesome - https://fontawesome.com License - https://fontawesome.com/license (Commercial License) Copyright 2023 Fonticons, Inc. --><path d="M272 16V265.4l84.7-84.7L368 169.4 390.6 192l-11.3 11.3-112 112L256 326.6l-11.3-11.3-112-112L121.4 192 144 169.4l11.3 11.3L240 265.4V16 0h32V16zM32 320H144l32 64H336l32-64H480h32v32V480v32H480 32 0V480 352 320H32zm332.6 78.3L355.8 416H336 176 156.2l-8.8-17.7L124.2 352H32V480H480V352H387.8l-23.2 46.3z"/></svg>
